X:89
T:The Finest Lad in Town
O:No 89 Wm Clarke MS  Feltwell, Norfolk
I:abc2nwc
M:4/4
L:1/8
K:G
G2|:G3/2B/2 d3/2f/2 g2g3/2d/2|e2e3/2d/2 g2g2|
G3/2B/2 d3/2f/2 g2g3/2d/2|e/2g3/2 dB A2A2:|
|:b2a3/2g/2 fa dB|b2a3/2g/2 dc' ba|b2a3/2g/2 fa dB|eg dB A2A2:|

